resources/svg/shop.svg

<svg xmlns="http://www.w3.org/2000/svg" viewBox="0 0 15 15" fill="currentColor"><path d="M14 1H1V0H14V1Z" fill="black"/><path d="M1.00971 2.40194C1.05646 2.16823 1.26166 2 1.5 2H13.5C13.7383 2 13.9436 2.16823 13.9903 2.40194L14.9903 7.40194C15.0197 7.54883 14.9816 7.70115 14.8867 7.81699C14.7917 7.93284 14.6498 8 14.5 8H0.500004C0.350208 8 0.208303 7.93284 0.113333 7.81699C0.0183639 7.70115 -0.0196636 7.54883 0.00971396 7.40194L1.00971 2.40194Z" fill="black"/><path d="M1 9V14H1.46883e-10V15H15V14H14V9H12V11H3V9H1Z" fill="black"/><path d="M4 9H11V10H4V9Z" fill="black"/></svg>

<svg xmlns="http://www.w3.org/2000/svg" viewBox="0 0 15 15" fill="currentColor"><path d="M14 1H1V0h13v1zM1.01 2.402A.5.5 0 011.5 2h12a.5.5 0 01.49.402l1 5A.5.5 0 0114.5 8H.5a.5.5 0 01-.49-.598l1-5zM1 9v5H0v1h15v-1h-1V9h-2v2H3V9H1z" fill="currentColor"/><path d="M4 9h7v1H4V9z" fill="currentColor"/></svg>
